material/.icons/material/treasure-chest.svg

<svg xmlns="http://www.w3.org/2000/svg" viewBox="0 0 24 24"><path d="M5 4h14a3 3 0 013 3v4h-7v-1H9v1H2V7a3 3 0 013-3m6 7h2v2h-2v-2m-9 1h7v1l2 2h2l2-2v-1h7v8H2v-8z"/></svg>

<?xml version="1.0" encoding="UTF-8"?><!DOCTYPE svg PUBLIC "-//W3C//DTD SVG 1.1//EN" "http://www.w3.org/Graphics/SVG/1.1/DTD/svg11.dtd"><svg xmlns="http://www.w3.org/2000/svg" xmlns:xlink="http://www.w3.org/1999/xlink" version="1.1" id="mdi-treasure-chest" width="24" height="24" viewBox="0 0 24 24"><path d="M5,4H19A3,3 0 0,1 22,7V11H15V10H9V11H2V7A3,3 0 0,1 5,4M11,11H13V13H11V11M2,12H9V13L11,15H13L15,13V12H22V20H2V12Z" /></svg>
